X: 41
T:Shane O'Neills
R:March
M:4/4
L:1/8
Z:Alf 
K:G
GA|B>AB>A B2B/2c/2d|B>AB>A B2AG|Bdge dBGB|A2A>G A2GA|
B>AB>A B2B/2c/2d|B>AB>A B2AG|Bdge dBAB|G2G>F G2:|
ef|g2fg e2ag|f>efd B2G/2A/2B/2c/2|d2d>d dBAG|g2g>f g2g/2f/2g/2f/2|
e2e/2f/2g/2e/2 d2e/2f/2g/2e/2|dBAG A2GA|Bdge dBAB|G2G>G G2:|
